X: 30472
M: 2/4
L: 1/16
K: Bb
f2 |\
fgfe d2f2 | B2B2B2d2 | efgf e2d2 | c2c2c2f2 |\
fgfe d2f2 | b2b2b2g2 | a2f2g2=e2 | f2f2f2 :: f2 |\
fg_ag fe^c=B |
c2c2c3d | =efgf edcB | A2A2A3F |\
f2de f2ga | b4 d4 | c2g2f2A2 | B2B2B2 :|


